svgs/sharp-regular/torii-gate.svg

<svg xmlns="http://www.w3.org/2000/svg" viewBox="0 0 512 512"><!--! Font Awesome Pro 6.4.0 by @fontawesome - https://fontawesome.com License - https://fontawesome.com/license (Commercial License) Copyright 2023 Fonticons, Inc. --><path d="M416 80h7.8l7.4-2.5L464 66.6V104l-32 24-152 0H232L80 128 48 104V66.6L80.8 77.5 88.2 80H96 416zM232 176v64l-120 0V176H232zM64 288V488v24h48V488 288l144 0 144 0V488v24h48V488 288h40 24V240H488 448V176l64-48V50.6 0L464 16 416 32H96L48 16 0 0V50.6 128l64 48v64H24 0v48H24 64zm336-48l-120 0V176H400v64z"/></svg>

<svg xmlns="http://www.w3.org/2000/svg" viewBox="0 0 512 512"><!--! Font Awesome Pro 6.6.0 by @fontawesome - https://fontawesome.com License - https://fontawesome.com/license (Commercial License) Copyright 2024 Fonticons, Inc. --><path d="M416 80l7.8 0 7.4-2.5L464 66.6l0 37.4-32 24-152 0-48 0L80 128 48 104l0-37.4L80.8 77.5 88.2 80 96 80l320 0zM232 176l0 64-120 0 0-64 120 0zM64 288l0 200 0 24 48 0 0-24 0-200 144 0 144 0 0 200 0 24 48 0 0-24 0-200 40 0 24 0 0-48-24 0-40 0 0-64 64-48 0-77.4L512 0 464 16 416 32 96 32 48 16 0 0 0 50.6 0 128l64 48 0 64-40 0L0 240l0 48 24 0 40 0zm336-48l-120 0 0-64 120 0 0 64z"/></svg>
